X: 1
T:Liscannor Bay
T:Flowing Bowl, The
R:reel
N:Also played with double parts
D:M\'aire O'Keeffe: C\'oistir
D:Solas
Z:id:hn-reel-299
M:C|
K:D
ef|:gfed cA~A2|cAeA cA~A2|gfed cA~A2|1 fage d2ef:|2 fage d2dc||
d2fd Adfd|d2fa gece|d2fd Adfd|fage d2dc|
d2fd Adfd|(3Bcd ef ~g3e|~f3a g2fg|afge d2||
